X: 55
T:Long Note
R:Slide
S:Whistle Book
Z:Added by Alf Warnock
M:12/8
L:1/8
K:D
|:.D.D.D D2A A2G E2F|G2E .E.E.E =c2E d3|.D.D.D D2A A2G E2G|.A.A.A G2A E2A D3:|
.d.d.d d2B =c2A d2B|=c2A d2B c2A G2z|ddd d2B =c2A d2d|e2a a2g e3 d3|
.d.d.d d2B =cAd2B|=c2A d2B c2A G2F|D2E F2G A2d d2c|.A.A.A G2A E2A D3|
|:.a.a.a a2b a2f d2f|g2f g2a g2e cz|.a.a.a a2b a2f d2d|e2a a2g eae d3|
eaa a2b a2f d2f|g2e fed e2d c2B|A2B c2d e2d d2c|.A.A.A G2A EAD3:|

